X: 30905
T: Over The Camel's Hump
R: reel
M: 4/4
K: Gmajor
|:G2 (3Bcd cA G2|(3GAB dg fdcB|G2 (3Bcd cAGA|(3FED EF ABBA:|
(3Bcd cA GF D2-|DEFG ADFA|BcAD BcAG|(3FED EF ABBA|
d2 cA GF D2-|DEFG ADFA|BcAD BcAD|f2 dB cAFD||

